X: 1044
T: Hicaz-Zirgüle Seyir
C: Erol Bingöl
O: Turkey
F: http://compmusic.upf.edu/node/140
N: hicaz-zirgule--seyir--sofyan--1--erol_bingol
N: makam= hicaz-zirgule
N: form= seyir
N: usul= sofyan = 4/4
M: 4/4
L: 1/16
K: C _7/8B ^1/4f ^c ^g
Q: 1/4=60
%%MIDI tuningsystem comma53
A6B2 c4 d4  | e3d c2d2 e8  | e2f2 e2d2 e2f2 g2a2  | \
w:   |   |   | 
g3f gffe e8  | 
w:   | 
a2g2 a2=b2 =c'2b2 a2g2  | f3e eddc c8  | \
w:   |   | 
A2B2 A2=G2 A4 c4  | 
w:   | 
B2A2 =G2BA A8  | |


